X: 100275
T: BEAUFORT CASTLE REEL
R: reel
B: K\"ohler's Violin Repository, v.3, 1885 p.204 #2
F: http://www.archive.org/details/klersviolinrepos03rugg
Z: 2012 John Chambers <jc:trillian.mit.edu>
N: Added notation for 2nd ending of 1st part.
M: C|
L: 1/8
K: A
uC |\
(A,C)CE (cA)Ac | (BA)GF (EC)CE |[1 (A,C)CE (cA)Ae | cAEC B,3 :| [2 (A,C)CE (cA)eA | cAEC B,3 ||
uf |\
(ec)af (ec)cb | (ag)af (ec)cf | (ec)af (ec)cb | (ag)ac B2Bf |
(ec)af (ec)cb | (ag)af (ef)ce | cABG AcBc | AFEC "_Fine"B,3 "^D.C."|]

%%sep 2 1 500

